casedrop/img/upgrade/icons/reload.svg

<svg width="18" height="22" viewBox="0 0 18 22" fill="none" xmlns="http://www.w3.org/2000/svg">
<path d="M15.3559 4.64501C14.1702 3.45929 12.6532 2.6015 10.9534 2.2263L11.0701 0L6.67712 2.3146L5.50381 2.93567L5.28613 3.04971L5.63315 3.2358L7.27284 4.11847L10.7545 5.99199L10.8524 4.15039C12.0669 4.47464 13.1486 5.11848 14.0159 5.9825C15.3024 7.26894 16.0938 9.03839 16.0938 11.0002C16.0938 12.006 15.8857 12.9587 15.5105 13.8227L17.2451 14.576C17.721 13.4819 17.986 12.2713 17.986 11.0002C17.9893 8.52096 16.9802 6.26931 15.3559 4.64501Z" fill="#808495"/>
<path d="M10.7297 17.8815L7.24488 16.0075L7.14726 17.8496C5.93296 17.5249 4.848 16.8815 3.98398 16.0175C2.69729 14.7306 1.90584 12.9616 1.90584 11.0002C1.90584 9.99359 2.11398 9.04419 2.48919 8.1773L0.754539 7.42401C0.278617 8.521 0.0136719 9.73242 0.0136719 11.0002C0.0136719 13.4786 1.01944 15.7335 2.64379 17.355C3.82951 18.5407 5.34648 19.3981 7.04607 19.7699L6.92936 22L11.3194 19.6849L12.4991 19.0639L12.7135 18.9503L12.3698 18.7642L10.7297 17.8815Z" fill="#808495"/>
</svg>

<svg width="18" height="22" fill="none" xmlns="http://www.w3.org/2000/svg"><path d="M15.356 4.645a8.96 8.96 0 00-4.403-2.419L11.07 0 6.677 2.315l-1.173.62-.218.115.347.186 1.64.882 3.482 1.874.097-1.842a7.069 7.069 0 013.164 1.832A7.064 7.064 0 0116.094 11a7.062 7.062 0 01-.584 2.823l1.735.753A8.948 8.948 0 0017.986 11a8.953 8.953 0 00-2.63-6.355zM10.73 17.881l-3.485-1.873-.098 1.842a7.056 7.056 0 01-3.163-1.833A7.064 7.064 0 011.906 11c0-1.006.208-1.956.583-2.823L.755 7.424A8.972 8.972 0 00.014 11a8.963 8.963 0 002.63 6.355 8.927 8.927 0 004.402 2.415L6.93 22l4.39-2.315 1.18-.621.214-.114-.343-.186-1.64-.883z" fill="#808495"/></svg>
